Papirus/48x48/apps/org.gnome.DiskUtility.svg

<svg width="48" height="48" version="1.1" xmlns="http://www.w3.org/2000/svg">
 <rect x="9" y="5" width="30" height="40" rx="3" ry="3.253" style="opacity:.2"/>
 <rect x="9" y="4" width="30" height="40" rx="3" ry="3.253" style="fill:#e4e4e4"/>
 <path d="m12 6c-0.552285 0-1 0.4477153-1 1s0.447715 1 1 1 1-0.4477153 1-1-0.447715-1-1-1zm4 0c-0.518484 0-1 0.4396893-1 1 0 1.6182918-1.311718 3-3 3-0.562675 0-1 0.478359-1 1v3c0 0.549263 0.442847 1 1 1 1.638564 0 3.001125 1.315417 3 3-3.7e-4 0.553933-0.138317 1.286538-0.755534 2-2.138661 2.47215-3.244466 6.491767-3.244466 8.5v0.5c0 7.179702 5.820298 13 13 13s13-5.820298 13-13v-0.5c0-2.035649-1.081387-6.028048-3.220703-8.5-0.624392-0.721475-0.779297-1.469554-0.779297-2 0-1.712636 1.397131-3 3-3 0.550221 0 1-0.450249 1-1v-3c0-0.543738-0.453895-1-1-1-1.673181 0-3-1.3667337-3-3 0-0.565375-0.45759-1-1-1zm20 0c-0.552285 0-1 0.4477153-1 1s0.447715 1 1 1 1-0.4477153 1-1-0.447715-1-1-1zm-24 11c-0.552285 0-1 0.447715-1 1s0.447715 1 1 1 1-0.447715 1-1-0.447715-1-1-1zm24 0c-0.552285 0-1 0.447715-1 1s0.447715 1 1 1 1-0.447715 1-1-0.447715-1-1-1zm-24 23c-0.552285 0-1 0.447715-1 1s0.447715 1 1 1 1-0.447715 1-1-0.447715-1-1-1zm24 0c-0.552285 0-1 0.447715-1 1s0.447715 1 1 1 1-0.447715 1-1-0.447715-1-1-1z" style="fill:#ababab"/>
 <path d="m12 6c-0.552285 0-1 0.4477153-1 1 2.41e-4 0.1756086 0.04672 0.3480575 0.134766 0.5 0.178491-0.3091563 0.508251-0.4997174 0.865234-0.5 0.356983 2.826e-4 0.686743 0.1908437 0.865234 0.5 0.088045-0.1519425 0.134525-0.3243914 0.134766-0.5 0-0.5522847-0.447715-1-1-1zm4 0c-0.529533 0-1 0.4507379-1 1 0 1.6645418-1.38929 3-3 3-0.562675 0-1 0.467311-1 1v1c0-0.560311 0.453898-1 1-1 1.67171 0 3-1.3596111 3-3 0-0.5824078 0.470467-1 1-1h16c0.554128 0 1 0.4307188 1 1 0 1.6735605 1.366937 3 3 3 0.538987 0 1 0.436945 1 1v-1c0-0.545844-0.434154-1-1-1-1.65365 0-3-1.3432962-3-3 0-0.5380312-0.438059-1-1-1zm20 0c-0.552285 0-1 0.4477153-1 1 2.41e-4 0.1756086 0.04672 0.3480575 0.134766 0.5 0.178491-0.3091563 0.508251-0.4997174 0.865234-0.5 0.356983 2.826e-4 0.686743 0.1908437 0.865234 0.5 0.088045-0.1519425 0.134525-0.3243914 0.134766-0.5 0-0.5522847-0.447715-1-1-1zm-24 11c-0.552285 0-1 0.447715-1 1 2.41e-4 0.175609 0.04672 0.348057 0.134766 0.5 0.178491-0.309156 0.508251-0.499717 0.865234-0.5 0.356983 2.83e-4 0.686743 0.190844 0.865234 0.5 0.088045-0.151943 0.134525-0.324391 0.134766-0.5 0-0.552285-0.447715-1-1-1zm24 0c-0.552285 0-1 0.447715-1 1 2.41e-4 0.175609 0.04672 0.348057 0.134766 0.5 0.178491-0.309156 0.508251-0.499717 0.865234-0.5 0.356983 2.83e-4 0.686743 0.190844 0.865234 0.5 0.088045-0.151943 0.134525-0.324391 0.134766-0.5 0-0.552285-0.447715-1-1-1zm-21.755534 3c-2.138561 2.472236-3.244466 6.519123-3.244466 8.5v0.849609c0-2.625823 1.138224-5.914936 3.244466-8.349609 0.328256-0.379441 0.755534-1 0.755534-3 0 1-0.434879 1.629314-0.755534 2zm18.755534-2c0 2 0.503095 2.680856 0.779297 3 2.109846 2.437868 3.220703 5.630036 3.220703 8.363281v-0.863281c0-2.161043-1.116765-5.997868-3.220703-8.5-0.263628-0.313522-0.779297-1-0.779297-2zm-21 22c-0.552285 0-1 0.447715-1 1 2.41e-4 0.175609 0.04672 0.348057 0.134766 0.5 0.178491-0.309156 0.508251-0.499717 0.865234-0.5 0.356983 2.83e-4 0.686743 0.190844 0.865234 0.5 0.088045-0.151943 0.134525-0.324391 0.134766-0.5 0-0.552285-0.447715-1-1-1zm24 0c-0.552285 0-1 0.447715-1 1 2.41e-4 0.175609 0.04672 0.348057 0.134766 0.5 0.178491-0.309156 0.508251-0.499717 0.865234-0.5 0.356983 2.83e-4 0.686743 0.190844 0.865234 0.5 0.088045-0.151943 0.134525-0.324391 0.134766-0.5 0-0.552285-0.447715-1-1-1z" style="opacity:.2"/>
 <path d="m23.512309 18c-0.866829 0-1.707002 0.199291-2.481742 0.46917l4.091527 4.088144c0.840811 0.840098 0.840811 2.17569 0 3.015835l-1.542707 1.541429c-0.840815 0.840098-2.177527 0.840098-3.018342 0l-4.091523-4.088141c-0.270122 0.774066-0.469522 1.613559-0.469522 2.479679 0 4.145504 3.363377 7.506073 7.512309 7.506073 0.866832 0 1.707006-0.199291 2.48175-0.469123l11.144193 11.158601c3.582108 3.588995 8.072098-1.039625 4.628107-4.490235l-11.211262-11.225633c0.270117-0.774067 0.469514-1.61356 0.469514-2.479679 0-4.145504-3.363373-7.50612-7.51231-7.50612z" style="opacity:.2"/>
 <path d="m23.512309 17c-0.866829 0-1.707002 0.199291-2.481742 0.46917l4.091527 4.088144c0.840811 0.840098 0.840811 2.17569 0 3.015835l-1.542707 1.541429c-0.840815 0.840098-2.177527 0.840098-3.018342 0l-4.091523-4.088141c-0.270122 0.774066-0.469522 1.613559-0.469522 2.479679 0 4.145504 3.363377 7.506073 7.512309 7.506073 0.866832 0 1.707006-0.199291 2.48175-0.469123l11.144193 11.158601c3.582108 3.588995 8.072098-1.039625 4.628107-4.490235l-11.211262-11.225633c0.270117-0.774067 0.469514-1.61356 0.469514-2.479679 0-4.145504-3.363373-7.50612-7.51231-7.50612z" style="fill:#4f4f4f"/>
 <path d="m12 4c-1.662 0-3 1.4499311-3 3.2519531v1c0-1.802022 1.338-3.2519531 3-3.2519531h24c1.662 0 3 1.4499311 3 3.2519531v-1c0-1.802022-1.338-3.2519531-3-3.2519531h-24z" style="fill:#ffffff;opacity:.2"/>
</svg>

<svg xmlns="http://www.w3.org/2000/svg" width="48" height="48" version="1.1">
 <rect style="opacity:0.2" width="30" height="40" x="9" y="5" rx="3" ry="3"/>
 <rect style="fill:#e4e4e4" width="30" height="40" x="9" y="4" rx="3" ry="3"/>
 <path style="fill:#ababab" d="M 12,6 A 1,1 0 0 0 11,7 1,1 0 0 0 12,8 1,1 0 0 0 13,7 1,1 0 0 0 12,6 Z M 36,6 A 1,1 0 0 0 35,7 1,1 0 0 0 36,8 1,1 0 0 0 37,7 1,1 0 0 0 36,6 Z M 12,17 A 1,1 0 0 0 11,18 1,1 0 0 0 12,19 1,1 0 0 0 13,18 1,1 0 0 0 12,17 Z M 36,17 A 1,1 0 0 0 35,18 1,1 0 0 0 36,19 1,1 0 0 0 37,18 1,1 0 0 0 36,17 Z M 12,40 A 1,1 0 0 0 11,41 1,1 0 0 0 12,42 1,1 0 0 0 13,41 1,1 0 0 0 12,40 Z M 36,40 A 1,1 0 0 0 35,41 1,1 0 0 0 36,42 1,1 0 0 0 37,41 1,1 0 0 0 36,40 Z M 16,6 C 15,6 15,7 15,7 15,8.62 13.69,10 12,10 11,10 11,11 11,11 V 14 C 11,15 12,15 12,15 13.64,15 15,16.32 15,18 15,18.55 14.86,19.29 14.24,20 12.11,22.47 11,26.49 11,28.5 V 29 C 11,36.18 16.82,42 24,42 31.18,42 37,36.18 37,29 V 28.5 C 37,26.46 35.92,22.47 33.78,20 33.16,19.28 33,18.53 33,18 33,16.29 34.4,15 36,15 36,15 37,15 37,14 V 11 C 37,11 37,10 36,10 34.33,10 33,8.63 33,7 33,7 33,6 32,6 Z"/>
 <path style="opacity:0.2" d="M 12 6 A 1 1 0 0 0 11 7 A 1 1 0 0 0 11.135 7.5 A 1 1 0 0 1 12 7 A 1 1 0 0 1 12.863 7.502 A 1 1 0 0 0 13 7 A 1 1 0 0 0 12 6 z M 16 6 C 15 6 15 7 15 7 C 15 8.62 13.69 10 12 10 C 11 10 11 11 11 11 L 11 12 C 11 12 11 11 12 11 C 13.69 11 15 9.62 15 8 C 15 8 15 7 16 7 L 32 7 C 33 7 33 8 33 8 C 33 9.63 34.33 11 36 11 C 37 11 37 12 37 12 L 37 11 C 37 11 37 10 36 10 C 34.33 10 33 8.63 33 7 C 33 7 33 6 32 6 L 16 6 z M 36 6 A 1 1 0 0 0 35 7 A 1 1 0 0 0 35.135 7.5 A 1 1 0 0 1 36 7 A 1 1 0 0 1 36.863 7.502 A 1 1 0 0 0 37 7 A 1 1 0 0 0 36 6 z M 12 17 A 1 1 0 0 0 11 18 A 1 1 0 0 0 11.135 18.5 A 1 1 0 0 1 12 18 A 1 1 0 0 1 12.863 18.502 A 1 1 0 0 0 13 18 A 1 1 0 0 0 12 17 z M 36 17 A 1 1 0 0 0 35 18 A 1 1 0 0 0 35.135 18.5 A 1 1 0 0 1 36 18 A 1 1 0 0 1 36.863 18.502 A 1 1 0 0 0 37 18 A 1 1 0 0 0 36 17 z M 33.045 18.488 C 33.017 18.654 33 18.824 33 19 C 33 19.53 33.159 20.28 33.779 21 C 35.84 23.379 36.916 27.163 36.992 29.262 C 36.994 29.174 37 29.088 37 29 L 37 28.5 C 37 26.46 35.919 22.47 33.779 20 C 33.331 19.48 33.126 18.946 33.045 18.488 z M 14.957 18.512 C 14.88 18.97 14.684 19.492 14.24 20 C 12.11 22.47 11 26.49 11 28.5 L 11 29 C 11 29.095 11.006 29.189 11.008 29.283 C 11.08 27.214 12.182 23.386 14.24 21 C 14.86 20.29 15 19.55 15 19 C 15 18.833 14.983 18.671 14.957 18.512 z M 12 40 A 1 1 0 0 0 11 41 A 1 1 0 0 0 11.135 41.5 A 1 1 0 0 1 12 41 A 1 1 0 0 1 12.863 41.502 A 1 1 0 0 0 13 41 A 1 1 0 0 0 12 40 z M 36 40 A 1 1 0 0 0 35 41 A 1 1 0 0 0 35.135 41.5 A 1 1 0 0 1 36 41 A 1 1 0 0 1 36.863 41.502 A 1 1 0 0 0 37 41 A 1 1 0 0 0 36 40 z"/>
 <path style="opacity:0.2" d="m23.512 18c-0.867 0-1.707 0.199-2.482 0.469l4.092 4.088c0.841 0.84 0.841 2.176 0 3.016l-1.543 1.541c-0.841 0.84-2.178 0.84-3.018 0l-4.092-4.088c-0.27 0.774-0.47 1.614-0.47 2.48 0 4.146 3.363 7.506 7.512 7.506 0.867 0 1.707-0.199 2.482-0.469l11.144 11.159c3.582 3.589 8.072-1.04 4.628-4.49l-11.211-11.226c0.27-0.774 0.47-1.614 0.47-2.48 0-4.146-3.363-7.506-7.512-7.506z"/>
 <path style="fill:#4f4f4f" d="m23.512 17c-0.867 0-1.707 0.199-2.482 0.469l4.092 4.088c0.841 0.84 0.841 2.176 0 3.016l-1.543 1.541c-0.841 0.84-2.178 0.84-3.018 0l-4.092-4.088c-0.27 0.774-0.47 1.614-0.47 2.48 0 4.146 3.363 7.506 7.512 7.506 0.867 0 1.707-0.199 2.482-0.469l11.144 11.159c3.582 3.589 8.072-1.04 4.628-4.49l-11.211-11.226c0.27-0.774 0.47-1.614 0.47-2.48 0-4.146-3.363-7.506-7.512-7.506z"/>
</svg>
